static/assets/images/tokens/tbtc.svg

<svg width="256" height="256" viewBox="0 0 256 256" fill="none" xmlns="http://www.w3.org/2000/svg">
<path d="M128.006 256C198.696 256 256 198.687 256 128C256 57.3133 198.696 0 128.006 0C57.3158 0 0 57.3133 0 128C0 198.687 57.3044 256 128.006 256Z" fill="#1D2229"/>
<path d="M100.577 116.608H77.7222V139.392H100.577V116.608ZM77.7222 93.8247H54.8679V116.608H77.7222V93.8247ZM54.8557 116.608H32.0014V139.392H54.8557V116.608Z" fill="white"/>
<path d="M77.7222 139.392H54.8679V162.175H77.7222V139.392ZM207.627 98.7207C206.01 81.9724 191.508 76.3492 173.188 74.7374V64.0121H159.001V74.1314C155.269 74.1314 151.464 74.2041 147.671 74.2768V64H133.496V74.7252C130.421 74.7858 111.554 74.7737 111.554 74.7737L111.505 87.2441L123.346 87.3047V169.023H111.517L111.408 181.323C114.848 181.323 130.141 181.384 133.46 181.408V192H147.635V181.663C151.525 181.747 155.293 181.784 158.964 181.772V192H173.163V181.457C197.014 180.099 213.718 174.112 215.796 151.789C217.486 133.805 208.989 125.782 195.458 122.522C203.688 118.329 208.831 110.985 207.627 98.7207ZM187.751 148.978C187.751 166.55 157.579 164.539 147.951 164.551V133.405C157.579 133.405 187.739 130.666 187.751 148.978ZM181.162 105.035C181.162 121.032 155.986 119.153 147.975 119.153V90.8919C155.998 90.8919 181.162 88.3711 181.162 105.035Z" fill="white"/>
</svg>

<svg xmlns="http://www.w3.org/2000/svg" fill="none" viewBox="0 0 256 256"><path fill="#1D2229" d="M128 256c70.687 0 127.989-57.313 127.989-128S198.687 0 128 0 0 57.313 0 128s57.302 128 128 128"/><path fill="#fff" d="M100.572 116.608H77.719v22.784h22.853zM77.719 93.825H54.866v22.783h22.853zm-22.866 22.783H32v22.784h22.853zm22.866 22.784H54.866v22.783h22.853zm129.899-40.671c-1.617-16.749-16.119-22.372-34.438-23.984V64.012h-14.186v10.12c-3.732 0-7.537.072-11.33.145V64h-14.173v10.725c-3.076.06-21.942.049-21.942.049l-.049 12.47 11.84.06v81.719h-11.828l-.109 12.3c3.44 0 18.732.061 22.051.085V192h14.174v-10.337c3.89.084 7.658.121 11.329.109V192h14.199v-10.543c23.85-1.358 40.552-7.345 42.631-29.668 1.689-17.984-6.808-26.007-20.337-29.267 8.229-4.193 13.371-11.537 12.168-23.801m-19.875 50.257c0 17.572-30.171 15.561-39.799 15.573v-31.146c9.628 0 39.787-2.739 39.799 15.573m-6.589-43.943c0 15.997-25.175 14.118-33.186 14.118V90.892c8.023 0 33.186-2.52 33.186 14.143"/></svg>
